public/assets/qrCode.svg

<svg width="84" height="84" fill="none" xmlns="http://www.w3.org/2000/svg"><g filter="url(#a)"><circle cx="42" cy="38" r="22" fill="#fff"/></g><path d="M46 43v-1h-3v-3h3v2h2v2h-1v2h-2v2h-2v-3h2v-1h1Zm5 4h-4v-2h2v-2h2v4ZM33 29h8v8h-8v-8Zm10 0h8v8h-8v-8ZM33 39h8v8h-8v-8Zm15 0h3v2h-3v-2Zm-12-7v2h2v-2h-2Zm0 10v2h2v-2h-2Zm10-10v2h2v-2h-2Z" fill="#000"/><defs><filter id="a" x="0" y="0" width="84" height="84" filterUnits="userSpaceOnUse" color-interpolation-filters="sRGB"><feFlood flood-opacity="0" result="BackgroundImageFix"/><feColorMatrix in="SourceAlpha" values="0 0 0 0 0 0 0 0 0 0 0 0 0 0 0 0 0 0 127 0" result="hardAlpha"/><feMorphology radius="4" operator="dilate" in="SourceAlpha" result="effect1_dropShadow_0:158"/><feOffset dy="4"/><feGaussianBlur stdDeviation="8"/><feComposite in2="hardAlpha" operator="out"/><feColorMatrix values="0 0 0 0 0.770833 0 0 0 0 0.770833 0 0 0 0 0.770833 0 0 0 0.25 0"/><feBlend in2="BackgroundImageFix" result="effect1_dropShadow_0:158"/><feBlend in="SourceGraphic" in2="effect1_dropShadow_0:158" result="shape"/></filter></defs></svg>

<svg width="84" height="84" viewBox="0 0 84 84" fill="none" xmlns="http://www.w3.org/2000/svg">
<g filter="url(#filter0_d_0:158)">
<circle cx="42" cy="38" r="22" fill="white"/>
</g>
<path d="M46 43V42H43V39H46V41H48V43H47V45H45V47H43V44H45V43H46ZM51 47H47V45H49V43H51V47ZM33 29H41V37H33V29ZM43 29H51V37H43V29ZM33 39H41V47H33V39ZM48 39H51V41H48V39ZM36 32V34H38V32H36ZM36 42V44H38V42H36ZM46 32V34H48V32H46Z" fill="black"/>
<defs>
<filter id="filter0_d_0:158" x="0" y="0" width="84" height="84" filterUnits="userSpaceOnUse" color-interpolation-filters="sRGB">
<feFlood flood-opacity="0" result="BackgroundImageFix"/>
<feColorMatrix in="SourceAlpha" type="matrix" values="0 0 0 0 0 0 0 0 0 0 0 0 0 0 0 0 0 0 127 0" result="hardAlpha"/>
<feMorphology radius="4" operator="dilate" in="SourceAlpha" result="effect1_dropShadow_0:158"/>
<feOffset dy="4"/>
<feGaussianBlur stdDeviation="8"/>
<feComposite in2="hardAlpha" operator="out"/>
<feColorMatrix type="matrix" values="0 0 0 0 0.770833 0 0 0 0 0.770833 0 0 0 0 0.770833 0 0 0 0.25 0"/>
<feBlend mode="normal" in2="BackgroundImageFix" result="effect1_dropShadow_0:158"/>
<feBlend mode="normal" in="SourceGraphic" in2="effect1_dropShadow_0:158" result="shape"/>
</filter>
</defs>
</svg>
